icons/fill-new-finance-circle-rmb-coin.svg

<svg xmlns="http://www.w3.org/2000/svg" width="32px" height="32px" viewBox="0 0 32 32" version="1.1">
    <title>fill-new-finance-circle-rmb-coin</title>
    <g id="fill-new-finance-circle-rmb-coin" stroke-width="1" fill-rule="evenodd">
        <path d="M16,2 C23.7319865,2 30,8.2680135 30,16 C30,23.7319865 23.7319865,30 16,30 C8.2680135,30 2,23.7319865 2,16 C2,8.2680135 8.2680135,2 16,2 Z M19.6,9.2 C19.1581722,8.86862915 18.5313708,8.9581722 18.2,9.4 L16,12.333 L13.8,9.4 C13.4686292,8.9581722 12.8418278,8.86862915 12.4,9.2 C11.9581722,9.53137085 11.8686292,10.1581722 12.2,10.6 L14.751,14 L12,14 C11.4871642,14 11.0644928,14.3860402 11.0067277,14.8833789 L11,15 C11,15.5522847 11.4477153,16 12,16 L15,16 L15,18 L12,18 C11.4871642,18 11.0644928,18.3860402 11.0067277,18.8833789 L11,19 C11,19.5522847 11.4477153,20 12,20 L15,20 L15,22 C15,22.5128358 15.3860402,22.9355072 15.8833789,22.9932723 L16,23 C16.5522847,23 17,22.5522847 17,22 L17,20 L20,20 C20.5128358,20 20.9355072,19.6139598 20.9932723,19.1166211 L21,19 C21,18.4477153 20.5522847,18 20,18 L17,18 L17,16 L20,16 C20.5128358,16 20.9355072,15.6139598 20.9932723,15.1166211 L21,15 C21,14.4477153 20.5522847,14 20,14 L17.249,14 L19.8,10.6 C20.1058808,10.192159 20.053113,9.62670731 19.6956754,9.28149586 L19.6,9.2 Z" id="&#24418;&#29366;" />
    </g>
</svg>

<svg xmlns="http://www.w3.org/2000/svg" viewBox="0 0 32 32"><path fill="currentColor" d="M16 2c7.732 0 14 6.268 14 14s-6.268 14-14 14S2 23.732 2 16 8.268 2 16 2m3.6 7.2a1 1 0 0 0-1.4.2L16 12.333 13.8 9.4a1 1 0 1 0-1.6 1.2l2.551 3.4H12a1 1 0 0 0-.993.883L11 15a1 1 0 0 0 1 1h3v2h-3a1 1 0 0 0-.993.883L11 19a1 1 0 0 0 1 1h3v2a1 1 0 0 0 .883.993L16 23a1 1 0 0 0 1-1v-2h3a1 1 0 0 0 .993-.883L21 19a1 1 0 0 0-1-1h-3v-2h3a1 1 0 0 0 .993-.883L21 15a1 1 0 0 0-1-1h-2.751l2.551-3.4a1 1 0 0 0-.104-1.319z"/></svg>
